<?xml version="1.0" encoding="UTF-8"?>
<!-- The Forked Path — sample map, 24x14 tiles at 16px.
     Generated from sample_map_01.json and verified by rendering it in Tiled's own tmxrasterizer
     and comparing the result pixel-for-pixel against sample_map_01.png. -->
<map version="1.10" tiledversion="1.10.2" orientation="orthogonal" renderorder="right-down" width="24" height="14" tilewidth="16" tileheight="16" infinite="0" nextlayerid="3" nextobjectid="1">
 <tileset firstgid="1" source="../importers/Tiled/verdant-00-sample.autotile_dirt.tsx"/>
 <tileset firstgid="49" source="../importers/Tiled/verdant-00-sample.props.tsx"/>
 <tileset firstgid="85" source="../importers/Tiled/verdant-00-sample.terrain.tsx"/>
 <layer id="1" name="ground" width="24" height="14">
  <data encoding="csv">
87,85,88,88,86,87,87,87,85,87,88,86,85,87,85,85,87,85,85,85,88,86,88,85,
88,88,85,86,87,85,88,86,85,86,86,88,87,86,85,88,11,29,16,24,27,85,88,85,
86,88,85,87,86,87,86,87,86,86,86,87,86,85,87,11,31,35,85,13,43,86,87,86,
88,88,85,85,87,88,86,86,85,87,88,87,85,87,86,13,43,85,88,13,46,27,87,86,
87,85,85,87,87,85,85,88,85,88,86,86,87,87,85,5,36,24,32,34,91,46,32,32,
87,86,86,85,86,88,87,87,87,88,88,85,86,88,85,85,87,13,92,92,90,90,90,92,
32,27,85,87,88,86,85,85,88,86,86,86,87,85,88,11,32,34,89,45,37,37,37,37,
92,46,32,27,86,88,88,87,86,85,86,85,87,11,32,34,45,37,37,35,87,88,85,87,
37,37,42,46,32,32,32,32,32,32,32,32,32,34,45,37,35,87,85,85,86,85,86,85,
85,87,5,37,42,89,90,90,90,90,91,89,45,37,35,86,86,88,85,87,85,87,86,86,
88,85,88,86,5,37,37,37,37,37,37,37,35,86,88,88,88,86,88,87,86,86,85,87,
87,87,87,87,87,86,85,86,85,86,87,85,86,87,86,85,87,86,88,86,86,88,87,85,
88,87,85,88,85,87,86,87,85,88,86,88,86,85,85,86,88,85,85,85,88,86,88,85,
88,87,86,88,86,88,85,87,86,86,87,88,88,86,86,87,87,87,85,85,88,88,88,88
</data>
 </layer>
 <layer id="2" name="props" width="24" height="14">
  <data encoding="csv">
0,0,0,0,0,0,0,0,0,0,0,0,0,0,0,0,0,0,0,0,0,0,0,0,
0,59,60,0,0,0,0,59,60,0,0,0,0,59,60,0,0,0,0,0,0,0,0,0,
0,77,78,0,61,0,0,77,78,0,61,0,0,77,78,0,0,0,0,0,0,0,57,0,
0,0,0,0,0,0,0,0,0,0,0,0,0,0,0,0,0,0,0,0,0,0,0,0,
0,0,0,63,0,0,0,0,0,0,0,0,57,0,0,0,0,0,0,0,0,0,0,0,
0,0,0,0,0,0,0,0,0,0,0,0,0,0,0,0,0,0,0,0,0,0,0,0,
0,0,0,0,0,0,0,0,0,0,0,0,0,0,0,0,0,0,0,0,0,0,0,0,
0,0,0,0,0,0,0,0,0,0,0,0,0,0,0,0,0,0,0,0,0,0,0,0,
0,0,0,0,0,0,0,0,0,0,0,0,0,0,0,0,0,0,0,63,0,0,0,0,
0,0,0,0,0,0,0,0,0,0,0,0,0,0,0,0,0,0,0,0,0,59,60,0,
0,0,0,0,0,0,0,0,0,0,0,0,0,0,0,0,0,65,0,0,0,77,78,0,
0,0,0,0,0,61,0,0,0,0,0,0,0,0,0,61,0,0,0,0,0,0,0,0,
0,0,0,0,0,0,0,0,63,0,0,0,0,0,0,0,0,0,0,0,0,0,0,0,
0,0,0,0,0,0,0,0,0,0,0,0,0,0,0,0,0,0,0,0,0,0,0,0
</data>
 </layer>
</map>
